X: 162
T: No_6_My_Pipe.krn
N: Derived from No_6_My_Pipe.krn
%%abc-version 2.0
%%abcx-abcm2ps-target-version 5.9.1 (29 Sep 2008)
%%abc-creator hum2abc beta
%%abcx-conversion-date 2019/03/15 08:29:13
%%humdrum-veritas 1669484047
%%humdrum-veritas-data 2981597796
%%linebreak <none>
%%barnumbers 0
L: 1/16
M: 2/4
%%staves {1 2}
V: 1 clef=bass
V: 2 clef=bass
K: G
[V:1] D3D [I:setbarnb 1]| 
[V:2] z4 | 
[V:1] D3D D3D | 
[V:2] G,,2G,,2 G,,2G,,2 | 
[V:1] D4(B,A,2)A, ]|:  
[V:2] G,,2G,,2 G,,2G,,2 ]|:  
[V:1] A,3A, (A,G,2)E, | 
[V:2] z8 | 
[V:1] E,4E,4 | 
[V:2] z8 | 
[V:1] E,6DD | 
[V:2] z8 | 
[V:1] D3B, B,3B, | 
[V:2] z8 | 
[V:1] A,4(A,G,2)G, | 
[V:2] z8 | 
[V:1] G,3G, (G,E,2)E, | 
[V:2] z8 | 
[V:1] D,4D,3D, | 
[V:2] z8 | 
[V:1] D,3D, D,3D, | 
[V:2] z8 | 
[V:1] D,4E,3E, | 
[V:2] z8 | 
[V:1] E,3E, E,3E, | 
[V:2] z8 | 
[V:1] D,4D,3D, | 
[V:2] z8 | 
[V:1] B,,3B,, B,,3B,, | 
[V:2] z8 | 
[V:1] G,,8 | 
[V:2] z8 | 
[V:1] z4DDDD | 
[V:2] z8 | 
[V:1] D4(DB,2)A, :|]  
[V:2] z8 :|]  



